packages/heroicons/src/interstate/outline/hand-thumb-up.svg

<svg width="16" height="17" viewBox="0 0 16 17" fill="none" xmlns="http://www.w3.org/2000/svg">
<path d="M4.0251 7.84158C4.61833 7.84158 5.15358 7.51358 5.51967 7.04679C6.08848 6.32153 6.80536 5.71794 7.62479 5.28154C8.15606 4.99861 8.61706 4.57828 8.8406 4.01941C8.99702 3.62837 9.07738 3.21106 9.07738 2.78989V2.32392C9.07738 2.01919 9.32442 1.77216 9.62915 1.77216C10.5433 1.77216 11.2844 2.51326 11.2844 3.42745C11.2844 4.27469 11.0935 5.07733 10.7523 5.79468C10.5569 6.20544 10.831 6.73804 11.2858 6.73804M11.2858 6.73804H13.5855C14.3408 6.73804 15.0168 7.24861 15.0968 7.99965C15.1298 8.31027 15.1468 8.62571 15.1468 8.94511C15.1468 11.0401 14.4171 12.9646 13.198 14.4784C12.9128 14.8325 12.472 15.0145 12.0174 15.0145H9.06285C8.70703 15.0145 8.35352 14.9572 8.01595 14.8446L5.72469 14.0809C5.38712 13.9684 5.03362 13.911 4.67779 13.911H3.48926M11.2858 6.73804H9.62915M3.48926 13.911C3.55018 14.0615 3.61648 14.2093 3.68791 14.354C3.83294 14.648 3.6305 15.0145 3.30274 15.0145H2.63489C1.98107 15.0145 1.37468 14.6334 1.18387 14.0081C0.934859 13.192 0.800903 12.3256 0.800903 11.4281C0.800903 10.2859 1.01779 9.19446 1.41262 8.19258C1.63705 7.6231 2.21146 7.28981 2.82357 7.28981H3.59807C3.94526 7.28981 4.1463 7.69879 3.96605 7.99552C3.35807 8.99645 3.00797 10.1714 3.00797 11.4281C3.00797 12.3061 3.17888 13.1442 3.48926 13.911Z" stroke="black" stroke-width="1.5" stroke-linecap="round" stroke-linejoin="round"/>
</svg>

<svg viewBox="0 0 16 17">
  <path stroke="currentColor" stroke-linecap="round" stroke-linejoin="round" stroke-width="1.5" d="M4.025 7.883c.593 0 1.129-.328 1.495-.795a6.651 6.651 0 0 1 2.105-1.765c.531-.283.992-.703 1.216-1.262a3.31 3.31 0 0 0 .236-1.23v-.466c0-.304.247-.551.552-.551.914 0 1.655.74 1.655 1.655 0 .847-.19 1.65-.532 2.367-.195.41.079.943.534.943m0 0h2.3c.755 0 1.43.511 1.51 1.262a8.792 8.792 0 0 1-1.899 6.479c-.284.354-.725.536-1.18.536H9.063c-.356 0-.71-.057-1.047-.17l-2.291-.764a3.308 3.308 0 0 0-1.047-.17H3.489m7.797-7.173H9.629m-6.14 7.173c.061.15.128.299.199.443.145.294-.057.66-.385.66h-.668c-.654 0-1.26-.38-1.451-1.005A8.828 8.828 0 0 1 .8 11.47c0-1.143.217-2.234.612-3.236.224-.57.799-.903 1.41-.903h.775c.347 0 .548.41.368.706a6.59 6.59 0 0 0-.958 3.432c0 .879.17 1.717.481 2.483Z"/>
</svg>
